X:1
T:Atoning Sacrifice, 10.10.10 D
T:Atoning Sacrifice, 10.10.10 D
T:Scott Werdebaugh, 2017
T:© 2017 Scott Werdebaugh. Reproduce or publish freely for Christian worship or devotions. Courtesy of the Cyber Hymnal™
C:Scott Werdebaugh, 2017
Z:© 2017 Scott Werdebaugh. Reproduce or publish freely for Christian worship or devotions.
Z:Courtesy of the Cyber Hymnal™
%%score ( 1 2 ) 3
L:1/8
Q:1/4=120
M:4/4
K:Ab
V:1 treble 
V:2 treble 
V:3 bass 
V:1
"^With Reflective Mediation" [CE]4 [EA]2 [EG]2 | [DF]4 [CE]4 | [EA]2 [EA]2 [EB]2 [EB]2 | [Ec]6 z2 | %4
 [FA]4 [FA]2 [FB]2 | [EA]4 [Ec]4 | [Ac]2 [GB]2 [Ac]2 [Bd]2 | [GB]6 z2 | [CE]4 [CE]2 [DF]2 | %9
 [CE]4 [EA]4 | [EA]2 [EG]2 [FA]2 [GB]2 | [Ac]6 z2 | [EA]4 [EB]2 [EA]2 | [FA]4 [DF]4 | %14
 [CE]2 [CA]2 [DA]2 G2 | [CA]6 z2 | [EA]4 [Ec]2 [EB]2 | [EA]2 [EG]2 [DF]2 [CE]2 | [EA]4 [GB]4 | %19
 [Ac]6 z2 | [FA]4 [FB]2 [EA]2 | [DA]4 [DF]4 | [CE]2 [CE]2 [DF]2 [B,E]2 | [CE]6 z2 |] %24
V:2
 x8 | x8 | x8 | x8 | x8 | x8 | x8 | x8 | x8 | x8 | x8 | x8 | x8 | x8 | x6 (ED) | x8 | x8 | x8 | %18
 x8 | x8 | x8 | x8 | x8 | x8 |] %24
V:3
 [A,,A,]4 [A,C]2 [E,B,]2 | [D,A,]4 [A,,A,]4 | [A,C]2 [A,C]2 [E,G,]2 [E,G,]2 | [A,,A,]6 z2 | %4
 [C,A,]4 [D,F,]2 [D,B,]2 | [C,A,]4 [A,,A,]4 | [F,A,]2 [E,G,]2 [F,A,]2 [E,B,]2 | [E,G,]6 z2 | %8
 [A,,A,]4 [A,,A,]2 [D,A,]2 | [A,,A,]4 [A,C]4 | [A,C]2 [E,B,]2 [F,A,]2 [E,G,]2 | [A,,E,]6 z2 | %12
 [C,A,]4 [E,G,]2 [A,C]2 | [D,A,]4 [D,A,]4 | [A,,E,]2 [A,,E,]2 [D,F,]2 [E,B,]2 | [A,,A,]6 z2 | %16
 [A,C]4 [A,,A,]2 [E,G,]2 | [C,A,]2 [E,B,]2 [D,A,]2 [E,A,]2 | [A,C]4 [E,G,]4 | [A,,E,]6 z2 | %20
 [D,A,]4 [D,A,]2 [C,A,]2 | [D,F,]4 [D,A,]4 | [A,,A,]2 [E,A,]2 [D,B,]2 [E,G,]2 | [A,,A,]6 z2 |] %24

